!!!COM: Stadler, Maximilian
!!!CDT: 1748///-1833///
!!!COA: Haydn, Joseph
!!!OTL@@IT: Gioco filarmonico
!!!OTL@EN: Philharmonic Joke
!!!OTA@@IT: o sia maniera facile per comporre un infinito numero de minuetti e trio anche senza sapere il contrapunto
!!!OTA@EN: or the Art of Composing an Infinite Number of Minutes Without the Least Knowledge of Counterpoint
!!!PDT: 1781///
!!!PPR: Artaria
!!!SML: Gesellschaft der Musikfreundes, Vienna
!!!PPR2: Luigi Marescalchi
!!!PPP2: Napoli
!!!PDT2: 1790///
**kern	**kern	**kern
*Icello	*Ivioln	*Ivioln
*>[A,A,B,B,A]	*>[A,A,B,B,A]	*>[A,A,B,B,A]
*>norep[A,B]	*>norep[A,B]	*>norep[A,B]
*>A	*>A	*>A
*k[]	*k[]	*k[]
*M3/4	*M3/4	*M3/4
*MM120	*MM120	*MM120
!!section:  I
!!measure:  A
!!diceroll: 5
=40	=40	=40
4C	12c	2cc
.	12e	.
.	12g	.
4C	12c	.
.	12e	.
.	12g	.
4C	12c	16aa
.	.	16gg
.	12e	.
.	.	16ff#
.	12g	.
.	.	16gg
!!section:  I
!!measure:  B
!!diceroll: 10
=142	=142	=142
8BB	4r	8.gg
8G	.	.
.	.	32ff
.	.	32gg
8D	8.ff	8.aa
8G	.	.
.	16b	16ff
8C	4cc	4ee
8G	.	.
!!section:  I
!!measure:  C
!!diceroll: 9
=114	=114	=114
4E	4c	8gg
.	.	16ff
.	.	16gg
4F	4c	8aa
.	.	8a
4r	4r	8ff
.	.	8dd
!!section:  I
!!measure:  D
!!diceroll: 7
=167	=167	=167
4E	4c	8gg
.	.	8g
4D	4B	8ff
.	.	8f
4C	4c	4e
!!section:  I
!!measure:  E
!!diceroll: 8
=99	=99	=99
4C	12c	4ee
.	12e	.
.	12a	.
4C	12c	8dd
.	12e	.
.	.	8cc
.	12a	.
4C	12c	8b
.	12e	.
.	.	8a
.	12a	.
!!section:  I
!!measure:  F
!!diceroll: 9
=86	=86	=86
4A	2d	8.cc
.	.	16ee
4F#	.	8.a
.	.	16cc
4G	4r	4b
!!section:  I
!!measure:  G
!!diceroll: 8
=21	=21	=21
4D	8a	8a
.	8cc	8ee
4E	8b	8dd
.	8a	8cc
4DD	8g	8b
.	8f#	8a
!!section:  I
!!measure:  H
!!diceroll: 3
=81	=81	=81
4GG	2.g	2.g
4D	.	.
4G	.	.
*>B	*>B	*>B
!!section:  II
!!measure:  A
!!diceroll: 4
=66	=66	=66
4r	4r	8cc#
.	.	8ee
4G	4A	8r
.	.	8ee
4G	4A	16dd
.	.	16cc#
.	.	16b
.	.	16a
!!section:  II
!!measure:  B
!!diceroll: 11
=4	=4	=4
4F	4d	8.dd
.	.	16a
4E	4c#	8.g
.	.	16a
4D	4d	4f
!!section:  II
!!measure:  C
!!diceroll: 3
=126	=126	=126
8GG	2dd	2ff
8G	.	.
8BB	.	.
8G	.	.
8GG	8cc	8ee
8G	8b	8dd
!!section:  II
!!measure:  D
!!diceroll: 7
=29	=29	=29
4r	8cc	8cc
.	8b	8dd
8C	8cc	8ee
8D	8b	8ff
4E	4cc	4gg
!!section:  II
!!measure:  E
!!diceroll: 5
=67	=67	=67
4C	2.cc	2.cc
4G	.	.
4c	.	.
!!section:  II
!!measure:  F
!!diceroll: 5
=160	=160	=160
4r	4r	12f
.	.	12ff
.	.	12dd
4G	4d	12b
.	.	12dd
.	.	12f
4A	4c	4e
!!section:  II
!!measure:  G
!!diceroll: 9
=72	=72	=72
4F	8b	8dd
.	8ff	8aa
4G	8ee	8gg
.	8dd	8ff
4GG	8cc	8ee
.	8b	8dd
!!section:  II
!!measure:  H
!!diceroll: 9
=111	=111	=111
8C	2.cc	2.cc
8c	.	.
8G	.	.
8E	.	.
4C	.	.
*-	*-	*-
!!!END: 2004/11/01/
